X: 493
T: THE SNOW STORM
B: O'Neill's 493
Z: 1999 by John Chambers <jc@trillian.mit.edu>
N: "Moderate"
N: Collected by "F.ONeill"
M: C
L: 1/8
K:G
D2 \
|G3A B2AG|FGAB c2Bc|defe dcAF|G3F D2 3DEF|
|~G3A B2~AG|FGAB c2Bc|defd cAFA|G4 G2||
||Bc \
|~dcde f2ef|dggf g2de|f2ag fedB|d2cBAG F23DEF|
|~G3A B2~AG|FGAB c2Bc|defd cAFA|G4 G2|]
